X: 7905
T: Con Mullane's
R: reel
M: 4/4
K: Dmajor
DFAc BABc|(3dcd cA BE E2|DFAc BABc|1 dBAG FD D2:|2 dBAG FDFA||
d2 fd edfd|(3dcd cA BE E2|d2 fd edfd|dBAG FDFA|
d2 fd edfd|(3dcd cA BE E2|gfed edBd|dBAG FD D2||

